!!!COM:	Bach, Johann Sebastian
!!!OMV:	Nun danket alle Gott
!!!OTL:	Nun danket alle Gott
**kern	**fb	**kern	**kern	**kern	**kern	**kern
*part6	*part6	*part5	*part4	*part3	*part2	*part1
*staff6	*	*staff5	*staff4	*staff3	*staff2	*staff1
*I"Voice	*	*I"Voice	*I"Voice	*I"Voice	*I"Horn in G	*I"Horn in G
*I'V	*	*I'V	*I'V	*I'V	*I'G Hn.	*I'G Hn.
*clefF4	*	*clefGv2	*clefG2	*clefG2	*clefG2	*clefG2
*	*	*	*	*	*ITrd3c5	*ITrd3c5
*k[f#]	*	*k[f#]	*k[f#]	*k[f#]	*k[f#c#]	*k[f#c#]
*M4/4	*	*M4/4	*M4/4	*M4/4	*M4/4	*M4/4
4G	.	4B	4g	4dd	8gL	4dd
.	.	.	.	.	8dJ	.
=2	=2	=2	=2	=2	=2	=2
4F#	6	8AL	4a	4dd	8dL	4dd
.	.	8dJ	.	.	8B	.
4G	.	4B	4g	4dd	8B	4dd
.	.	.	.	.	8GJ	.
8CL	.	4c	4g	4ee	8GL	4ee
8DJ	.	.	.	.	8g	.
8EL	6	4c	8gL	4ee	8g	4ee
8CJ	6	.	8aJ	.	8ccJ	.
=3	=3	=3	=3	=3	=3	=3
2.G;	.	2.d;	2.b;	2.dd;	2.b;	2.dd;
4G	.	4d	4g	4b	8gL	4b
.	.	.	.	.	8dJ	.
=4	=4	=4	=4	=4	=4	=4
8GL	5 4 2	4.d	4a	4cc	8dL	4cc
8F#J	.	.	.	.	8a	.
4G	.	.	4d	4b	8g	4b
.	.	8g	.	.	8dJ	.
8DL	.	4f#	4d	4a	16dLL	4a
.	.	.	.	.	16BJ	.
8CJ	.	.	.	.	8dJ	.
8BBL	6	8gL	8dL	8bL	[4g	8bL
8EJ	6	8GJ	8eJ	8ccJ	.	8ccJ
=	=	=	=	=	=	=
8C	6 5	4e	16eLL	2a	8gL]	2a
.	.	.	16f#JJ	.	.	.
16BBLL	.	.	4g	.	8dJ	.
16CJJ	.	.	.	.	.	.
8DL	.	4A	.	.	16dLL	.
.	.	.	.	.	16BJ	.
8DDJ	.	.	8f#	.	8dJ	.
4GG	.	4B	4d	4g	4B	4g
=5:|!	=5:|!	=5:|!	=5:|!	=5:|!	=5:|!	=5:|!
8DL	.	4A	8f#L	4a	4d	4a
8EJ	.	.	8gJ	.	.	.
=6	=6	=6	=6	=6	=6	=6
!!linebreak:original
8F#L	6	4d	8aL	4a	[2d	4a
8EJ	.	.	8gJ	.	.	.
8F#L	.	4c	8aL	4a	.	4a
8DJ	.	.	8f#J	.	.	.
8GGL	.	8BL	4d	4b	16dLL]	4b
.	.	.	.	.	16B	.
8AAJ	.	8cJ	.	.	16d	.
.	.	.	.	.	16BJJ	.
8BBL	6	4d	4g	4b	8GL	4b
8CJ	.	.	.	.	8gJ	.
=7	=7	=7	=7	=7	=7	=7
2.D;	.	2.d;	2.f#;	2.a;	2.d;	2.a;
4D	.	8dL	4f#	4a	4d	4a
.	.	8cJ	.	.	.	.
=8	=8	=8	=8	=8	=8	=8
4G	5 3	8BL	8dL	8bL	8dL	8bL
.	6 #4|	8AJ	8eJ	8cc#XJ	8a	8cc#J
8F#L	6	8AL	4f#	4dd	8a	4dd
8BJ	.	8dJ	.	.	8dJ	.
8GL	6 5	8dL	4b	4dd	8bL	4dd
8EJ	.	8gJ	.	.	8gJ	.
8AL	#	16eLL	8aL	4cc#	4a	4cc#
.	.	16dJ	.	.	.	.
8AAJ	.	8eJ	8gJ	.	.	.
=9	=9	=9	=9	=9	=9	=9
2.D;	.	2.d;	2.f#;	2.dd;	2.a;	2.dd;
4G	.	4B	4g	4dd	8bL	4dd
.	.	.	.	.	8gJ	.
=10	=10	=10	=10	=10	=10	=10
4C	5	4c	8gL	4ee	8gL	4ee
.	6	.	8aJ	.	8cc	.
8GL	.	8d	4b	4dd	8b	4dd
8FnJ	.	16eLL	.	.	8gJ	.
.	.	16fnJJ	.	.	.	.
8EL	6 5	8gL	8bL	4cc	8gL	4cc
8FJ	5	8cJ	8aJ	.	8aJ	.
8DL	6 5 n	8fL	8aL	4b	8r	4b
8EJ	#	8eJ	8g#XJ	.	8b	.
=11	=11	=11	=11	=11	=11	=11
!!pagebreak:original
2.AA;	.	2.e;	2.a;	2.cc;	2.a;	2.cc;
8BL	6	4gn	4d	4b	8gL	4b
8GJ	.	.	.	.	8dJ	.
=12	=12	=12	=12	=12	=12	=12
8DL	.	8f#L	4.d	4a	16dLL	4a
.	.	.	.	.	16BJ	.
8F#J	6	8dJ	.	.	8dJ	.
8GL	.	8BL	.	8bL	8GL	8bL
8CJ	6 5	8AJ	8e	8ccJ	8gJ	8ccJ
4D	5 4	8AL	8f#L	4.a	8gL	4.a
.	.	8BJ	8gJ	.	8dJ	.
4DD	3	8cL	4f#	.	16dLL	.
.	.	.	.	.	16BJ	.
.	.	8AJ	.	8g	8dJ	8g
=13	=13	=13	=13	=13	=13	=13
2.GG;	.	2.B;	2.d;	2.g;	2.B;	2.g;
=||	=||	=||	=||	=||	=||	=||
*-	*-	*-	*-	*-	*-	*-
!!!system-decoration: s1,s2,s3,s4,s5,s6
